assets/icons/EmailIcon.svg

<?xml version="1.0" encoding="UTF-8"?> <svg xmlns="http://www.w3.org/2000/svg" width="100" height="100" viewBox="0 0 100 100" fill="none"> <path d="M67.5 30H32.5C30.5109 30 28.6032 30.7902 27.1967 32.1967C25.7902 33.6032 25 35.5109 25 37.5V62.5C25 64.4891 25.7902 66.3968 27.1967 67.8033C28.6032 69.2098 30.5109 70 32.5 70H67.5C69.4891 70 71.3968 69.2098 72.8033 67.8033C74.2098 66.3968 75 64.4891 75 62.5V37.5C75 35.5109 74.2098 33.6032 72.8033 32.1967C71.3968 30.7902 69.4891 30 67.5 30ZM66.475 35L51.775 49.7C51.5426 49.9343 51.2661 50.1203 50.9614 50.2472C50.6568 50.3741 50.33 50.4395 50 50.4395C49.67 50.4395 49.3432 50.3741 49.0386 50.2472C48.7339 50.1203 48.4574 49.9343 48.225 49.7L33.525 35H66.475ZM70 62.5C70 63.163 69.7366 63.7989 69.2678 64.2678C68.7989 64.7366 68.163 65 67.5 65H32.5C31.837 65 31.2011 64.7366 30.7322 64.2678C30.2634 63.7989 30 63.163 30 62.5V38.525L44.7 53.225C46.1063 54.6295 48.0125 55.4184 50 55.4184C51.9875 55.4184 53.8937 54.6295 55.3 53.225L70 38.525V62.5Z" fill="white"></path> <rect x="1" y="1" width="98" height="98" stroke="white" stroke-width="2"></rect> </svg>

<svg xmlns="http://www.w3.org/2000/svg" width="100" height="100" fill="none"><path d="M67.5 30h-35a7.5 7.5 0 0 0-7.5 7.5v25a7.5 7.5 0 0 0 7.5 7.5h35a7.5 7.5 0 0 0 7.5-7.5v-25a7.5 7.5 0 0 0-7.5-7.5Zm-1.025 5-14.7 14.7a2.5 2.5 0 0 1-3.55 0L33.525 35h32.95ZM70 62.5a2.5 2.5 0 0 1-2.5 2.5h-35a2.5 2.5 0 0 1-2.5-2.5V38.525l14.7 14.7a7.5 7.5 0 0 0 10.6 0l14.7-14.7V62.5Z" fill="#fff"/><path stroke="#fff" stroke-width="2" d="M1 1h98v98H1z"/></svg>
